!!!COM: Vivaldi, Antonio
!!!CDT: 1678/03/04/-1741/07/27/
!!!OTL: Concerto in E Minor, Op. 6, No. 5
!!!OMV: No. 3
!!!OMD: Allegro
**kern	**dynam	**kern	**kern	**dynam	**kern	**dynam	**kern	**dynam	**kern	**dynam	**kern	**dynam	**kern	**dynam
*staff8	*staff8	*staff7	*staff6	*staff6	*staff5	*staff5	*staff4	*staff4	*staff3	*staff3	*staff2	*staff2	*staff1	*staff1
*Icemba	*Icemba	*Icemba	*Icbass	*Icbass	*Icello	*Icello	*Iviola	*Iviola	*Ivioln	*Ivioln	*Ivioln	*Ivioln	*Ivioln	*Ivioln
*clefF4	*clefF4	*clefG2	*clefF4	*clefF4	*clefF4	*clefF4	*clefC3	*clefC3	*clefG2	*clefG2	*clefG2	*clefG2	*clefG2	*clefG2
*k[f#]	*k[f#]	*k[f#]	*k[f#]	*k[f#]	*k[f#]	*k[f#]	*k[f#]	*k[f#]	*k[f#]	*k[f#]	*k[f#]	*k[f#]	*k[f#]	*k[f#]
*M3/8	*M3/8	*M3/8	*M3/8	*M3/8	*M3/8	*M3/8	*M3/8	*M3/8	*M3/8	*M3/8	*M3/8	*M3/8	*M3/8	*M3/8
*MM120	*MM120	*MM120	*MM120	*MM120	*MM120	*MM120	*MM120	*MM120	*MM120	*MM120	*MM120	*MM120	*MM120	*MM120
=1-	=1-	=1-	=1-	=1-	=1-	=1-	=1-	=1-	=1-	=1-	=1-	=1-	=1-	=1-
4E\	f	4.r	4E\	f	4E\	f	4g\	f	8ee\L	f	8ee\L	f	8ee\L	f
.	.	.	.	.	.	.	.	.	16gg\L	.	16gg\L	.	16gg\L	.
.	.	.	.	.	.	.	.	.	16ff#\J	.	16ff#\J	.	16ff#\J	.
8E\	.	.	8E\	.	8E\	.	8g\	.	8ee\J	.	8ee\J	.	8ee\J	.
=2	=2	=2	=2	=2	=2	=2	=2	=2	=2	=2	=2	=2	=2	=2
4E\	.	4.r	4E\	.	4E\	.	8B/L	.	8g/L	.	8g/L	.	8g/L	.
.	.	.	.	.	.	.	8A/	.	8f#/	.	8f#/	.	8f#/	.
8E\	.	.	8E\	.	8E\	.	8G/J	.	8e/J	.	8e/J	.	8e/J	.
=3	=3	=3	=3	=3	=3	=3	=3	=3	=3	=3	=3	=3	=3	=3
4E\	.	4.r	4E\	.	4E\	.	4b\	.	8gg\L	.	8gg\L	.	8gg\L	.
.	.	.	.	.	.	.	.	.	16bb\L	.	16bb\L	.	16bb\L	.
.	.	.	.	.	.	.	.	.	16aa\J	.	16aa\J	.	16aa\J	.
8E\	.	.	8E\	.	8E\	.	8b\	.	8gg\J	.	8gg\J	.	8gg\J	.
=4	=4	=4	=4	=4	=4	=4	=4	=4	=4	=4	=4	=4	=4	=4
8.B\L	.	4.r	8.B\L	.	8.B\L	.	4.d#\	.	8ff#\L	.	8ff#\L	.	8ff#\L	.
.	.	.	.	.	.	.	.	.	8dd#\	.	8dd#\	.	8dd#\	.
16A\L	.	.	16A\L	.	16A\L	.	.	.	.	.	.	.	.	.
16G\	.	.	16G\	.	16G\	.	.	.	8b\J	.	8b\J	.	8b\J	.
16F#\JJ	.	.	16F#\JJ	.	16F#\JJ	.	.	.	.	.	.	.	.	.
=5	=5	=5	=5	=5	=5	=5	=5	=5	=5	=5	=5	=5	=5	=5
4E\	.	4.r	4E\	.	4E\	.	4g\	.	8ee\L	.	8ee\L	.	8ee\L	.
.	.	.	.	.	.	.	.	.	16gg\L	.	16gg\L	.	16gg\L	.
.	.	.	.	.	.	.	.	.	16ff#\J	.	16ff#\J	.	16ff#\J	.
8E\	.	.	8E\	.	8E\	.	8g\	.	8ee\J	.	8ee\J	.	8ee\J	.
=6	=6	=6	=6	=6	=6	=6	=6	=6	=6	=6	=6	=6	=6	=6
4E\	.	4.r	4E\	.	4E\	.	8B/L	.	8g/L	.	8g/L	.	8g/L	.
.	.	.	.	.	.	.	8A/	.	8f#/	.	8f#/	.	8f#/	.
8E\	.	.	8E\	.	8E\	.	8G/J	.	8e/J	.	8e/J	.	8e/J	.
=7	=7	=7	=7	=7	=7	=7	=7	=7	=7	=7	=7	=7	=7	=7
4E\	.	4.r	4E\	.	4E\	.	4b\	.	8gg\L	.	8gg\L	.	8gg\L	.
.	.	.	.	.	.	.	.	.	16bb\L	.	16bb\L	.	16bb\L	.
.	.	.	.	.	.	.	.	.	16aa\J	.	16aa\J	.	16aa\J	.
8E\	.	.	8E\	.	8E\	.	8b\	.	8gg\J	.	8gg\J	.	8gg\J	.
=8	=8	=8	=8	=8	=8	=8	=8	=8	=8	=8	=8	=8	=8	=8
8.A\L	.	4.r	8.A\L	.	8.A\L	.	4d#\	.	4ff#\	.	4ff#\	.	4ff#\	.
16c\L	.	.	16c\L	.	16c\L	.	.	.	.	.	.	.	.	.
16B\	.	.	16B\	.	16B\	.	8r	.	8r	.	8r	.	8r	.
16A\JJ	.	.	16A\JJ	.	16A\JJ	.	.	.	.	.	.	.	.	.
=9	=9	=9	=9	=9	=9	=9	=9	=9	=9	=9	=9	=9	=9	=9
4G#\	.	4.r	4G#\	.	4G#\	.	4e\	.	8bb\L	.	8bb\L	.	8bb\L	.
.	.	.	.	.	.	.	.	.	16ddd\L	.	16ddd\L	.	16ddd\L	.
.	.	.	.	.	.	.	.	.	16ccc\J	.	16ccc\J	.	16ccc\J	.
8G#\	.	.	8G#\	.	8G#\	.	8e\	.	8bb\J	.	8bb\J	.	8bb\J	.
=10	=10	=10	=10	=10	=10	=10	=10	=10	=10	=10	=10	=10	=10	=10
8.A\L	.	4.r	8.A\L	.	8.A\L	.	4.e\	.	8ccc\L	.	8ccc\L	.	8ccc\L	.
.	.	.	.	.	.	.	.	.	8ee\	.	8ee\	.	8ee\	.
16B\L	.	.	16B\L	.	16B\L	.	.	.	.	.	.	.	.	.
16A\	.	.	16A\	.	16A\	.	.	.	8a\J	.	8a\J	.	8a\J	.
16G\JJ	.	.	16G\JJ	.	16G\JJ	.	.	.	.	.	.	.	.	.
=11	=11	=11	=11	=11	=11	=11	=11	=11	=11	=11	=11	=11	=11	=11
4F#\	.	4.r	4F#\	.	4F#\	.	4d\	.	8aa\L	.	8aa\L	.	8aa\L	.
.	.	.	.	.	.	.	.	.	16ccc\L	.	16ccc\L	.	16ccc\L	.
.	.	.	.	.	.	.	.	.	16bb\J	.	16bb\J	.	16bb\J	.
8F#\	.	.	8F#\	.	8F#\	.	8d\	.	8aa\J	.	8aa\J	.	8aa\J	.
=12	=12	=12	=12	=12	=12	=12	=12	=12	=12	=12	=12	=12	=12	=12
8.G\L	.	4.r	8.G\L	.	8.G\L	.	4.d\	.	8bb\L	.	8bb\L	.	8bb\L	.
.	.	.	.	.	.	.	.	.	8dd\	.	8dd\	.	8dd\	.
16A\L	.	.	16A\L	.	16A\L	.	.	.	.	.	.	.	.	.
16G\	.	.	16G\	.	16G\	.	.	.	8g\J	.	8g\J	.	8g\J	.
16F#\JJ	.	.	16F#\JJ	.	16F#\JJ	.	.	.	.	.	.	.	.	.
=13	=13	=13	=13	=13	=13	=13	=13	=13	=13	=13	=13	=13	=13	=13
4E\	.	4.r	4E\	.	4E\	.	4b\	.	8gg\L	.	8gg\L	.	8gg\L	.
.	.	.	.	.	.	.	.	.	16bb\L	.	16bb\L	.	16bb\L	.
.	.	.	.	.	.	.	.	.	16aa\J	.	16aa\J	.	16aa\J	.
8E\	.	.	8E\	.	8E\	.	8b\	.	8gg\J	.	8gg\J	.	8gg\J	.
=14	=14	=14	=14	=14	=14	=14	=14	=14	=14	=14	=14	=14	=14	=14
8A\L	.	4.r	8A\L	.	8A\L	.	8cc\L	.	8ffn\L	.	8ffn\L	.	8ffn\L	.
8B\	.	.	8B\	.	8B\	.	8b\	.	8gg\	.	8gg\	.	8gg\	.
8G\J	.	.	8G\J	.	8G\J	.	8b\J	.	8ee\J	.	8ee\J	.	8ee\J	.
=15	=15	=15	=15	=15	=15	=15	=15	=15	=15	=15	=15	=15	=15	=15
4E\	.	4.r	4E\	.	4E\	.	4B/	.	8g/L	.	8g/L	.	8g/L	.
.	.	.	.	.	.	.	.	.	16b/L	.	16b/L	.	16b/L	.
.	.	.	.	.	.	.	.	.	16a/J	.	16a/J	.	16a/J	.
8E\	.	.	8E\	.	8E\	.	8B/	.	8g/J	.	8g/J	.	8g/J	.
=16	=16	=16	=16	=16	=16	=16	=16	=16	=16	=16	=16	=16	=16	=16
8AA/L	.	4.r	8AA/L	.	8AA/L	.	8c/L	.	8fn/L	.	8fn/L	.	8fn/L	.
8BB/	.	.	8BB/	.	8BB/	.	8B/	.	8g/	.	8g/	.	8g/	.
8GG/J	.	.	8GG/J	.	8GG/J	.	8A/J	.	8e/J	.	8e/J	.	8e/J	.
=17	=17	=17	=17	=17	=17	=17	=17	=17	=17	=17	=17	=17	=17	=17
4E\	.	4.r	4E\	.	4E\	.	4G/	.	8ee\L	.	8ee\L	.	8ee\L	.
.	.	.	.	.	.	.	.	.	16gg\L	.	16gg\L	.	16gg\L	.
.	.	.	.	.	.	.	.	.	16ff#\J	.	16ff#\J	.	16ff#\J	.
8E\	.	.	8E\	.	8E\	.	8G/	.	8ee\J	.	8ee\J	.	8ee\J	.
=18	=18	=18	=18	=18	=18	=18	=18	=18	=18	=18	=18	=18	=18	=18
4E\	.	4.r	4E\	.	4E\	.	4G/	.	8ee\L	.	8ee\L	.	8ee\L	.
.	.	.	.	.	.	.	.	.	16gg\L	.	16gg\L	.	16gg\L	.
.	.	.	.	.	.	.	.	.	16ff#\J	.	16ff#\J	.	16ff#\J	.
8G\	.	.	8G\	.	8G\	.	8B/	.	8ee\J	.	8ee\J	.	8ee\J	.
=19	=19	=19	=19	=19	=19	=19	=19	=19	=19	=19	=19	=19	=19	=19
8A\L	.	4.r	8A\L	.	8A\L	.	8c/L	.	8ff#\L	.	8ff#\L	.	8ff#\L	.
8B\	.	.	8B\	.	8B\	.	8B/	.	8b\	.	8b\	.	8b\	.
8BB\J	.	.	8BB\J	.	8BB\J	.	8A/J	.	8dd#\J	.	8dd#\J	.	8dd#\J	.
=20	=20	=20	=20	=20	=20	=20	=20	=20	=20	=20	=20	=20	=20	=20
8.E\L	.	4.r	8.E\L	.	8.E\L	.	8.G/L	.	4ee\	.	4ee\	.	4ee\	.
16F#\L	.	.	16F#\L	.	16F#\L	.	16A/L	.	.	.	.	.	.	.
16G\	.	.	16G\	.	16G\	.	16B/	.	8r	.	8r	.	8r	.
16F#\JJ	.	.	16F#\JJ	.	16F#\JJ	.	16A/JJ	.	.	.	.	.	.	.
=21	=21	=21	=21	=21	=21	=21	=21	=21	=21	=21	=21	=21	=21	=21
4E\	.	4.r	4E\	.	4E\	.	4G/	.	8e/L	.	8e/L	.	8e/L	.
.	.	.	.	.	.	.	.	.	16g/L	.	16g/L	.	16g/L	.
.	.	.	.	.	.	.	.	.	16f#/J	.	16f#/J	.	16f#/J	.
8E\	.	.	8E\	.	8E\	.	8G/	.	8e/J	.	8e/J	.	8e/J	.
=22	=22	=22	=22	=22	=22	=22	=22	=22	=22	=22	=22	=22	=22	=22
4E\	.	4.r	4E\	.	4E\	.	4G/	.	8e/L	.	8e/L	.	8e/L	.
.	.	.	.	.	.	.	.	.	16g/L	.	16g/L	.	16g/L	.
.	.	.	.	.	.	.	.	.	16f#/J	.	16f#/J	.	16f#/J	.
8GG/	.	.	8GG/	.	8GG/	.	8B/	.	8e/J	.	8e/J	.	8e/J	.
=23	=23	=23	=23	=23	=23	=23	=23	=23	=23	=23	=23	=23	=23	=23
8AA/L	.	4.r	8AA/L	.	8AA/L	.	8c/L	.	8f#/L	.	8f#/L	.	8f#/L	.
8BB/	.	.	8BB/	.	8BB/	.	8B/	.	8B/	.	8B/	.	8B/	.
8BB/J	.	.	8BB/J	.	8BB/J	.	8A/J	.	8d#/J	.	8d#/J	.	8d#/J	.
=24	=24	=24	=24	=24	=24	=24	=24	=24	=24	=24	=24	=24	=24	=24
4E\	.	4.r	4E\	.	4E\	.	4G/	.	4e/	.	4e/	.	16e/LL	.
.	.	.	.	.	.	.	.	.	.	.	.	.	16f#/	.
.	.	.	.	.	.	.	.	.	.	.	.	.	16g/	.
.	.	.	.	.	.	.	.	.	.	.	.	.	16a/	.
8A\	.	.	8r	.	8A\	.	8r	.	8r	.	8r	.	16b/	.
.	.	.	.	.	.	.	.	.	.	.	.	.	16cc/JJ	.
=25	=25	=25	=25	=25	=25	=25	=25	=25	=25	=25	=25	=25	=25	=25
8G\L	.	4.r	4.r	.	8G\L	.	4.r	.	4.r	.	4.r	.	16b\LL	.
.	.	.	.	.	.	.	.	.	.	.	.	.	16cc#\	.
8F#\	.	.	.	.	8F#\	.	.	.	.	.	.	.	16dd#\	.
.	.	.	.	.	.	.	.	.	.	.	.	.	16ee\	.
8E\J	.	.	.	.	8E\J	.	.	.	.	.	.	.	16ff#\	.
.	.	.	.	.	.	.	.	.	.	.	.	.	16gg\JJ	.
=26	=26	=26	=26	=26	=26	=26	=26	=26	=26	=26	=26	=26	=26	=26
16D#\LL	.	4.r	4.r	.	16D#\LL	.	4.r	.	4.r	.	4.r	.	16ff#\LL	.
16E\	.	.	.	.	16E\	.	.	.	.	.	.	.	16gg\	.
16F#\	.	.	.	.	16F#\	.	.	.	.	.	.	.	16aa\	.
16G\J	.	.	.	.	16G\J	.	.	.	.	.	.	.	16bb\	.
8A\J	.	.	.	.	8A\J	.	.	.	.	.	.	.	16ccc\	.
.	.	.	.	.	.	.	.	.	.	.	.	.	16aa\JJ	.
=27	=27	=27	=27	=27	=27	=27	=27	=27	=27	=27	=27	=27	=27	=27
8.E\L	.	4.r	4.r	.	8.E\L	.	4.r	.	4.r	.	4.r	.	8bb\L	.
.	.	.	.	.	.	.	.	.	.	.	.	.	8ee\J	.
16F#\L	.	.	.	.	16F#\L	.	.	.	.	.	.	.	.	.
16G\	.	.	.	.	16G\	.	.	.	.	.	.	.	8r	.
16F#\JJ	.	.	.	.	16F#\JJ	.	.	.	.	.	.	.	.	.
=28	=28	=28	=28	=28	=28	=28	=28	=28	=28	=28	=28	=28	=28	=28
4E\	.	4.r	4.r	.	4E\	.	4.r	.	4.r	.	4.r	.	16eee\LL	.
.	.	.	.	.	.	.	.	.	.	.	.	.	16ddd\	.
.	.	.	.	.	.	.	.	.	.	.	.	.	16ccc\	.
.	.	.	.	.	.	.	.	.	.	.	.	.	16bb\	.
8r	.	.	.	.	8r	.	.	.	.	.	.	.	16aa\	.
.	.	.	.	.	.	.	.	.	.	.	.	.	16gg\JJ	.
=29	=29	=29	=29	=29	=29	=29	=29	=29	=29	=29	=29	=29	=29	=29
4A\	.	4.r	4.r	.	4A\	.	4.r	.	4.r	.	4.r	.	16ff#\LL	.
.	.	.	.	.	.	.	.	.	.	.	.	.	16gg\	.
.	.	.	.	.	.	.	.	.	.	.	.	.	16aa\	.
.	.	.	.	.	.	.	.	.	.	.	.	.	16bb\	.
8r	.	.	.	.	8r	.	.	.	.	.	.	.	16ccc\	.
.	.	.	.	.	.	.	.	.	.	.	.	.	16aa\JJ	.
=30	=30	=30	=30	=30	=30	=30	=30	=30	=30	=30	=30	=30	=30	=30
4B\	.	4.r	4.r	.	4B\	.	4.r	.	4.r	.	4.r	.	16ddd\LL	.
.	.	.	.	.	.	.	.	.	.	.	.	.	16ccc\	.
.	.	.	.	.	.	.	.	.	.	.	.	.	16bb\	.
.	.	.	.	.	.	.	.	.	.	.	.	.	16aa\	.
8r	.	.	.	.	8r	.	.	.	.	.	.	.	16gg\	.
.	.	.	.	.	.	.	.	.	.	.	.	.	16ff#\JJ	.
=31	=31	=31	=31	=31	=31	=31	=31	=31	=31	=31	=31	=31	=31	=31
4c\	.	4.r	4.r	.	4c\	.	4.r	.	4.r	.	4.r	.	16ee\LL	.
.	.	.	.	.	.	.	.	.	.	.	.	.	16ff#\	.
.	.	.	.	.	.	.	.	.	.	.	.	.	16gg\	.
.	.	.	.	.	.	.	.	.	.	.	.	.	16aa\	.
8r	.	.	.	.	8r	.	.	.	.	.	.	.	16bb\	.
.	.	.	.	.	.	.	.	.	.	.	.	.	16gg\JJ	.
=32	=32	=32	=32	=32	=32	=32	=32	=32	=32	=32	=32	=32	=32	=32
4A\	.	4.r	4.r	.	4A\	.	4.r	.	4.r	.	4.r	.	16ccc\LL	.
.	.	.	.	.	.	.	.	.	.	.	.	.	16bb\	.
.	.	.	.	.	.	.	.	.	.	.	.	.	16aa\	.
.	.	.	.	.	.	.	.	.	.	.	.	.	16gg\	.
8r	.	.	.	.	8r	.	.	.	.	.	.	.	16ff#\	.
.	.	.	.	.	.	.	.	.	.	.	.	.	16ee\JJ	.
=33	=33	=33	=33	=33	=33	=33	=33	=33	=33	=33	=33	=33	=33	=33
4B\	.	4.r	4.r	.	4B\	.	4.r	.	4.r	.	4.r	.	16dd\LL	.
.	.	.	.	.	.	.	.	.	.	.	.	.	16ee\	.
.	.	.	.	.	.	.	.	.	.	.	.	.	16ff#\	.
.	.	.	.	.	.	.	.	.	.	.	.	.	16gg\	.
8r	.	.	.	.	8r	.	.	.	.	.	.	.	16aa\	.
.	.	.	.	.	.	.	.	.	.	.	.	.	16ff#\JJ	.
=34	=34	=34	=34	=34	=34	=34	=34	=34	=34	=34	=34	=34	=34	=34
4G\	.	4.r	4.r	.	4G\	.	4.r	.	4.r	.	4.r	.	16bb\LL	.
.	.	.	.	.	.	.	.	.	.	.	.	.	16aa\	.
.	.	.	.	.	.	.	.	.	.	.	.	.	16gg\	.
.	.	.	.	.	.	.	.	.	.	.	.	.	16ff#\	.
8r	.	.	.	.	8r	.	.	.	.	.	.	.	16ee\	.
.	.	.	.	.	.	.	.	.	.	.	.	.	16dd\JJ	.
=35	=35	=35	=35	=35	=35	=35	=35	=35	=35	=35	=35	=35	=35	=35
4A\	.	4.r	4.r	.	4A\	.	4.r	.	4.r	.	4.r	.	16cc\LL	.
.	.	.	.	.	.	.	.	.	.	.	.	.	16bb\	.
.	.	.	.	.	.	.	.	.	.	.	.	.	16aa\	.
.	.	.	.	.	.	.	.	.	.	.	.	.	16gg\	.
8r	.	.	.	.	8r	.	.	.	.	.	.	.	16ff#\	.
.	.	.	.	.	.	.	.	.	.	.	.	.	16ee\JJ	.
=36	=36	=36	=36	=36	=36	=36	=36	=36	=36	=36	=36	=36	=36	=36
4B\	.	4.r	4.r	.	4B\	.	4.r	.	4.r	.	4.r	.	16dd\LL	.
.	.	.	.	.	.	.	.	.	.	.	.	.	16ccc\	.
.	.	.	.	.	.	.	.	.	.	.	.	.	16bb\	.
.	.	.	.	.	.	.	.	.	.	.	.	.	16aa\	.
8r	.	.	.	.	8r	.	.	.	.	.	.	.	16gg\	.
.	.	.	.	.	.	.	.	.	.	.	.	.	16ff#\JJ	.
=37	=37	=37	=37	=37	=37	=37	=37	=37	=37	=37	=37	=37	=37	=37
4c\	.	4.r	4.r	.	4c\	.	4.r	.	4.r	.	4.r	.	16ee\LL	.
.	.	.	.	.	.	.	.	.	.	.	.	.	16ddd\	.
.	.	.	.	.	.	.	.	.	.	.	.	.	16ccc\	.
.	.	.	.	.	.	.	.	.	.	.	.	.	16bb\	.
8r	.	.	.	.	8r	.	.	.	.	.	.	.	16aa\	.
.	.	.	.	.	.	.	.	.	.	.	.	.	16gg\JJ	.
=38	=38	=38	=38	=38	=38	=38	=38	=38	=38	=38	=38	=38	=38	=38
4d\	.	4.r	4.r	.	4d\	.	4.r	.	4.r	.	4.r	.	16ff#\LL	.
.	.	.	.	.	.	.	.	.	.	.	.	.	16eee\	.
.	.	.	.	.	.	.	.	.	.	.	.	.	16ddd\	.
.	.	.	.	.	.	.	.	.	.	.	.	.	16ccc\	.
8r	.	.	.	.	8r	.	.	.	.	.	.	.	16bb\	.
.	.	.	.	.	.	.	.	.	.	.	.	.	16aa\JJ	.
=39	=39	=39	=39	=39	=39	=39	=39	=39	=39	=39	=39	=39	=39	=39
4B\	.	4.r	4.r	.	4B\	.	4.r	.	4.r	.	4.r	.	16gg\LL	.
.	.	.	.	.	.	.	.	.	.	.	.	.	16aa\	.
.	.	.	.	.	.	.	.	.	.	.	.	.	16bb\	.
.	.	.	.	.	.	.	.	.	.	.	.	.	16ccc\J	.
8r	.	.	.	.	8r	.	.	.	.	.	.	.	8ddd\J	.
=40	=40	=40	=40	=40	=40	=40	=40	=40	=40	=40	=40	=40	=40	=40
8BB/L	.	4.r	4.r	.	8BB/L	.	4.r	.	4.r	.	4.r	.	8gg\L	.
8C/	.	.	.	.	8C/	.	.	.	.	.	.	.	8aa\	.
8D/J	.	.	.	.	8D/J	.	.	.	.	.	.	.	8ff#\J	.
=41	=41	=41	=41	=41	=41	=41	=41	=41	=41	=41	=41	=41	=41	=41
4GG/	f	4.r	4GG/	f	4GG/	f	4b\	f	8gg\L	f	8gg\L	f	8gg\L	f
.	.	.	.	.	.	.	.	.	16bb\L	.	16bb\L	.	16bb\L	.
.	.	.	.	.	.	.	.	.	16aa\J	.	16aa\J	.	16aa\J	.
8G\	.	.	8G\	.	8G\	.	8b\	.	8gg\J	.	8gg\J	.	8gg\J	.
=42	=42	=42	=42	=42	=42	=42	=42	=42	=42	=42	=42	=42	=42	=42
4G\	.	4.r	4G\	.	4G\	.	8d/L	.	8b/L	.	8b/L	.	8b/L	.
.	.	.	.	.	.	.	8c/	.	8a/	.	8a/	.	8a/	.
8G\	.	.	8G\	.	8G\	.	8B/J	.	8g/J	.	8g/J	.	8g/J	.
=43	=43	=43	=43	=43	=43	=43	=43	=43	=43	=43	=43	=43	=43	=43
4G\	.	4.r	4G\	.	4G\	.	4d\	.	8b\L	.	8b\L	.	8b\L	.
.	.	.	.	.	.	.	.	.	16dd\L	.	16dd\L	.	16dd\L	.
.	.	.	.	.	.	.	.	.	16cc\J	.	16cc\J	.	16cc\J	.
8G\	.	.	8G\	.	8G\	.	8d\	.	8b\J	.	8b\J	.	8b\J	.
=44	=44	=44	=44	=44	=44	=44	=44	=44	=44	=44	=44	=44	=44	=44
4D\	.	4.r	4D\	.	4D\	.	4f#\	.	8a/L	.	8a/L	.	8a/L	.
.	.	.	.	.	.	.	.	.	8f#/	.	8f#/	.	8f#/	.
8D\	.	.	8D\	.	8D\	.	8f#\	.	8d/J	.	8d/J	.	8d/J	.
=45	=45	=45	=45	=45	=45	=45	=45	=45	=45	=45	=45	=45	=45	=45
4C/	.	4.r	4C/	.	4C/	.	4e\	.	8aa\L	.	8aa\L	.	8aa\L	.
.	.	.	.	.	.	.	.	.	16ccc\L	.	16ccc\L	.	16ccc\L	.
.	.	.	.	.	.	.	.	.	16bb\J	.	16bb\J	.	16bb\J	.
8r	.	.	8r	.	8r	.	8r	.	8aa\J	.	8aa\J	.	8aa\J	.
=46	=46	=46	=46	=46	=46	=46	=46	=46	=46	=46	=46	=46	=46	=46
4A\	.	4.r	4A\	.	4A\	.	8e\L	.	8cc\L	.	8cc\L	.	8cc\L	.
.	.	.	.	.	.	.	8d\	.	8b\	.	8b\	.	8b\	.
8A\	.	.	8A\	.	8A\	.	8c\J	.	8a\J	.	8a\J	.	8a\J	.
=47	=47	=47	=47	=47	=47	=47	=47	=47	=47	=47	=47	=47	=47	=47
4A\	.	4.r	4A\	.	4A\	.	4e\	.	8cc\L	.	8cc\L	.	8cc\L	.
.	.	.	.	.	.	.	.	.	16ee\L	.	16ee\L	.	16ee\L	.
.	.	.	.	.	.	.	.	.	16dd\J	.	16dd\J	.	16dd\J	.
8A\	.	.	8A\	.	8A\	.	8e\	.	8cc\J	.	8cc\J	.	8cc\J	.
=48	=48	=48	=48	=48	=48	=48	=48	=48	=48	=48	=48	=48	=48	=48
4E\	.	4.r	4E\	.	4E\	.	4g#\	.	8b/L	.	8b/L	.	8b/L	.
.	.	.	.	.	.	.	.	.	8g#/	.	8g#/	.	8g#/	.
8r	.	.	8r	.	8r	.	8g#\	.	8e/J	.	8e/J	.	8e/J	.
=49	=49	=49	=49	=49	=49	=49	=49	=49	=49	=49	=49	=49	=49	=49
4D\	.	4.r	4D\	.	4D\	.	4f#\	.	8bb\L	.	8bb\L	.	8bb\L	.
.	.	.	.	.	.	.	.	.	16ddd\L	.	16ddd\L	.	16ddd\L	.
.	.	.	.	.	.	.	.	.	16ccc#\J	.	16ccc#\J	.	16ccc#\J	.
8r	.	.	8r	.	8r	.	8r	.	8bb\J	.	8bb\J	.	8bb\J	.
=50	=50	=50	=50	=50	=50	=50	=50	=50	=50	=50	=50	=50	=50	=50
4B\	.	4.r	4B\	.	4B\	.	8f#\L	.	8dd\L	.	8dd\L	.	8dd\L	.
.	.	.	.	.	.	.	8e\	.	8cc#\	.	8cc#\	.	8cc#\	.
8B\	.	.	8B\	.	8B\	.	8d\J	.	8b\J	.	8b\J	.	8b\J	.
=51	=51	=51	=51	=51	=51	=51	=51	=51	=51	=51	=51	=51	=51	=51
4B\	.	4.r	4B\	.	4B\	.	4f#\	.	8dd\L	.	8dd\L	.	8dd\L	.
.	.	.	.	.	.	.	.	.	16ff#\L	.	16ff#\L	.	16ff#\L	.
.	.	.	.	.	.	.	.	.	16ee\J	.	16ee\J	.	16ee\J	.
8B\	.	.	8B\	.	8B\	.	8f#\	.	8dd\J	.	8dd\J	.	8dd\J	.
=52	=52	=52	=52	=52	=52	=52	=52	=52	=52	=52	=52	=52	=52	=52
4F#\	.	4.r	4F#\	.	4F#\	.	4a#\	.	8cc#/L	.	8cc#/L	.	8cc#/L	.
.	.	.	.	.	.	.	.	.	8a#/	.	8a#/	.	8a#/	.
8r	.	.	8r	.	8r	.	8a#\	.	8f#/J	.	8f#/J	.	8f#/J	.
=53	=53	=53	=53	=53	=53	=53	=53	=53	=53	=53	=53	=53	=53	=53
4BB/	.	4.r	4BB/	.	4BB/	.	4f#\	.	8dd\L	.	8dd\L	.	8dd\L	.
.	.	.	.	.	.	.	.	.	16ff#\L	.	16ff#\L	.	16ff#\L	.
.	.	.	.	.	.	.	.	.	16ee\J	.	16ee\J	.	16ee\J	.
8BB/	.	.	8BB/	.	8BB/	.	8f#\	.	8dd\J	.	8dd\J	.	8dd\J	.
=54	=54	=54	=54	=54	=54	=54	=54	=54	=54	=54	=54	=54	=54	=54
8E\L	.	4.r	8E\L	.	8E\L	.	8g\L	.	8cc\L	.	8cc\L	.	8cc\L	.
8F#\	.	.	8F#\	.	8F#\	.	8f#\	.	8dd\	.	8dd\	.	8dd\	.
8D\J	.	.	8D\J	.	8D\J	.	8f#\J	.	8b\J	.	8b\J	.	8b\J	.
=55	=55	=55	=55	=55	=55	=55	=55	=55	=55	=55	=55	=55	=55	=55
4BB/	.	4.r	4BB/	.	4BB/	.	4F#/	.	8d/L	.	8d/L	.	8d/L	.
.	.	.	.	.	.	.	.	.	16f#/L	.	16f#/L	.	16f#/L	.
.	.	.	.	.	.	.	.	.	16e/J	.	16e/J	.	16e/J	.
8BB/	.	.	8BB/	.	8BB/	.	8F#/	.	8d/J	.	8d/J	.	8d/J	.
=56	=56	=56	=56	=56	=56	=56	=56	=56	=56	=56	=56	=56	=56	=56
8E\L	.	4.r	8E\L	.	8E\L	.	8G/L	.	8c/L	.	8c/L	.	8c/L	.
8F#\	.	.	8F#\	.	8F#\	.	8F#/	.	8d/	.	8d/	.	8d/	.
8D\J	.	.	8D\J	.	8D\J	.	8F#/J	.	8B/J	.	8B/J	.	8B/J	.
=57	=57	=57	=57	=57	=57	=57	=57	=57	=57	=57	=57	=57	=57	=57
4BB/	.	4.r	4BB/	.	4BB/	.	4d\	.	8b\L	.	8b\L	.	8b\L	.
.	.	.	.	.	.	.	.	.	16dd\L	.	16dd\L	.	16dd\L	.
.	.	.	.	.	.	.	.	.	16cc#\J	.	16cc#\J	.	16cc#\J	.
8BB/	.	.	8BB/	.	8BB/	.	8d\	.	8b\J	.	8b\J	.	8b\J	.
=58	=58	=58	=58	=58	=58	=58	=58	=58	=58	=58	=58	=58	=58	=58
4BB/	.	4.r	4BB/	.	4BB/	.	4d\	.	8b\L	.	8b\L	.	8b\L	.
.	.	.	.	.	.	.	.	.	16dd\L	.	16dd\L	.	16dd\L	.
.	.	.	.	.	.	.	.	.	16cc#\J	.	16cc#\J	.	16cc#\J	.
8BB/	.	.	8BB/	.	8BB/	.	8d\	.	8b\J	.	8b\J	.	8b\J	.
=59	=59	=59	=59	=59	=59	=59	=59	=59	=59	=59	=59	=59	=59	=59
8E/L	.	4.r	8E/L	.	8E/L	.	8g\L	.	8cc#/L	.	8cc#/L	.	8cc#/L	.
8F#/	.	.	8F#/	.	8F#/	.	8f#\	.	8f#/	.	8f#/	.	8f#/	.
8FF#/J	.	.	8FF#/J	.	8FF#/J	.	8e\J	.	8a#/J	.	8a#/J	.	8a#/J	.
=60	=60	=60	=60	=60	=60	=60	=60	=60	=60	=60	=60	=60	=60	=60
4BB/	.	4.r	4BB/	.	4BB/	.	4d\	.	8b/L	.	8b/L	.	16b\LL	.
.	.	.	.	.	.	.	.	.	.	.	.	.	16dd\	.
.	.	.	.	.	.	.	.	.	8B/	p	8B/	p	16ff#\	.
.	.	.	.	.	.	.	.	.	.	.	.	.	16bb\	.
8r	.	.	8r	.	8r	.	8r	.	8B/J	.	8B/J	.	16ff#\	.
.	.	.	.	.	.	.	.	.	.	.	.	.	16dd\JJ	.
=61	=61	=61	=61	=61	=61	=61	=61	=61	=61	=61	=61	=61	=61	=61
4.r	.	4.r	4.r	.	4.r	.	4.r	.	8B/L	.	8B/L	.	16b\LL	.
.	.	.	.	.	.	.	.	.	.	.	.	.	16dd\	.
.	.	.	.	.	.	.	.	.	8B/	.	8B/	.	16ff#\	.
.	.	.	.	.	.	.	.	.	.	.	.	.	16bb\	.
.	.	.	.	.	.	.	.	.	8B/J	.	8B/J	.	16ff#\	.
.	.	.	.	.	.	.	.	.	.	.	.	.	16dd\JJ	.
=62	=62	=62	=62	=62	=62	=62	=62	=62	=62	=62	=62	=62	=62	=62
4.r	.	4.r	4.r	.	4.r	.	4.r	.	8f#/L	.	8f#/L	.	16a#\LL	.
.	.	.	.	.	.	.	.	.	.	.	.	.	16cc#\	.
.	.	.	.	.	.	.	.	.	8f#/	.	8f#/	.	16ff#\	.
.	.	.	.	.	.	.	.	.	.	.	.	.	16aa#\	.
.	.	.	.	.	.	.	.	.	8f#/J	.	8f#/J	.	16ff#\	.
.	.	.	.	.	.	.	.	.	.	.	.	.	16cc#\JJ	.
=63	=63	=63	=63	=63	=63	=63	=63	=63	=63	=63	=63	=63	=63	=63
4.r	.	4.r	4.r	.	4.r	.	4.r	.	8e/L	.	8e/L	.	16a#\LL	.
.	.	.	.	.	.	.	.	.	.	.	.	.	16cc#\	.
.	.	.	.	.	.	.	.	.	8e/	.	8e/	.	16ff#\	.
.	.	.	.	.	.	.	.	.	.	.	.	.	16aa#\	.
.	.	.	.	.	.	.	.	.	8e/J	.	8e/J	.	16ff#\	.
.	.	.	.	.	.	.	.	.	.	.	.	.	16cc#\JJ	.
=64	=64	=64	=64	=64	=64	=64	=64	=64	=64	=64	=64	=64	=64	=64
4.r	.	4.r	4.r	.	4.r	.	4.r	.	8d/L	.	8d/L	.	16b\LL	.
.	.	.	.	.	.	.	.	.	.	.	.	.	16dd\	.
.	.	.	.	.	.	.	.	.	8d/	.	8d/	.	16ff#\	.
.	.	.	.	.	.	.	.	.	.	.	.	.	16bb\	.
.	.	.	.	.	.	.	.	.	8d/J	.	8d/J	.	16ff#\	.
.	.	.	.	.	.	.	.	.	.	.	.	.	16dd\JJ	.
=65	=65	=65	=65	=65	=65	=65	=65	=65	=65	=65	=65	=65	=65	=65
4.r	.	4.r	4.r	.	4.r	.	4.r	.	8d/L	.	8d/L	.	16b\LL	.
.	.	.	.	.	.	.	.	.	.	.	.	.	16dd\	.
.	.	.	.	.	.	.	.	.	8d/	.	8d/	.	16ff#\	.
.	.	.	.	.	.	.	.	.	.	.	.	.	16bb\	.
.	.	.	.	.	.	.	.	.	8d/J	.	8d/J	.	16ff#\	.
.	.	.	.	.	.	.	.	.	.	.	.	.	16dd\JJ	.
=66	=66	=66	=66	=66	=66	=66	=66	=66	=66	=66	=66	=66	=66	=66
4.r	.	4.r	4.r	.	4.r	.	4.r	.	8d#/L	.	8d#/L	.	16b\LL	.
.	.	.	.	.	.	.	.	.	.	.	.	.	16dd#\	.
.	.	.	.	.	.	.	.	.	8d#/	.	8d#/	.	16ff#\	.
.	.	.	.	.	.	.	.	.	.	.	.	.	16bb\	.
.	.	.	.	.	.	.	.	.	8d#/J	.	8d#/J	.	16ff#\	.
.	.	.	.	.	.	.	.	.	.	.	.	.	16dd#\JJ	.
=67	=67	=67	=67	=67	=67	=67	=67	=67	=67	=67	=67	=67	=67	=67
4.r	.	4.r	4.r	.	4.r	.	4.r	.	8d#/L	.	8d#/L	.	16b\LL	.
.	.	.	.	.	.	.	.	.	.	.	.	.	16dd#\	.
.	.	.	.	.	.	.	.	.	8d#/	.	8d#/	.	16ff#\	.
.	.	.	.	.	.	.	.	.	.	.	.	.	16bb\	.
.	.	.	.	.	.	.	.	.	8d#/J	.	8d#/J	.	16ff#\	.
.	.	.	.	.	.	.	.	.	.	.	.	.	16dd#\JJ	.
=68	=68	=68	=68	=68	=68	=68	=68	=68	=68	=68	=68	=68	=68	=68
4.r	.	4.r	4.r	.	4.r	.	4.r	.	8e/L	.	8e/L	.	16b\LL	.
.	.	.	.	.	.	.	.	.	.	.	.	.	16ee\	.
.	.	.	.	.	.	.	.	.	8e/	.	8e/	.	16gg\	.
.	.	.	.	.	.	.	.	.	.	.	.	.	16bb\	.
.	.	.	.	.	.	.	.	.	8e/J	.	8e/J	.	16gg\	.
.	.	.	.	.	.	.	.	.	.	.	.	.	16ee\JJ	.
=69	=69	=69	=69	=69	=69	=69	=69	=69	=69	=69	=69	=69	=69	=69
4.r	.	4.r	4.r	.	4.r	.	4.r	.	8e/L	.	8e/L	.	16b\LL	.
.	.	.	.	.	.	.	.	.	.	.	.	.	16ee\	.
.	.	.	.	.	.	.	.	.	8e/	.	8e/	.	16gg\	.
.	.	.	.	.	.	.	.	.	.	.	.	.	16bb\	.
.	.	.	.	.	.	.	.	.	8e/J	.	8e/J	.	16gg\	.
.	.	.	.	.	.	.	.	.	.	.	.	.	16ee\JJ	.
=70	=70	=70	=70	=70	=70	=70	=70	=70	=70	=70	=70	=70	=70	=70
4.r	.	4.r	4.r	.	4.r	.	4.r	.	8a/L	.	8a/L	.	16a\LL	.
.	.	.	.	.	.	.	.	.	.	.	.	.	16cc#\	.
.	.	.	.	.	.	.	.	.	8a/	.	8a/	.	16ee\	.
.	.	.	.	.	.	.	.	.	.	.	.	.	16aa\	.
.	.	.	.	.	.	.	.	.	8a/J	.	8a/J	.	16ee\	.
.	.	.	.	.	.	.	.	.	.	.	.	.	16cc#\JJ	.
=71	=71	=71	=71	=71	=71	=71	=71	=71	=71	=71	=71	=71	=71	=71
4.r	.	4.r	4.r	.	4.r	.	4.r	.	8g/L	.	8g/L	.	16a\LL	.
.	.	.	.	.	.	.	.	.	.	.	.	.	16cc#\	.
.	.	.	.	.	.	.	.	.	8g/	.	8g/	.	16ee\	.
.	.	.	.	.	.	.	.	.	.	.	.	.	16aa\	.
.	.	.	.	.	.	.	.	.	8g/J	.	8g/J	.	16ee\	.
.	.	.	.	.	.	.	.	.	.	.	.	.	16cc#\JJ	.
=72	=72	=72	=72	=72	=72	=72	=72	=72	=72	=72	=72	=72	=72	=72
4.r	.	4.r	4.r	.	4.r	.	4.r	.	8f#/L	.	8f#/L	.	16dd\LL	.
.	.	.	.	.	.	.	.	.	.	.	.	.	16ff#\	.
.	.	.	.	.	.	.	.	.	8f#/	.	8f#/	.	16aa\	.
.	.	.	.	.	.	.	.	.	.	.	.	.	16ddd\	.
.	.	.	.	.	.	.	.	.	8f#/J	.	8f#/J	.	16aa\	.
.	.	.	.	.	.	.	.	.	.	.	.	.	16ff#\JJ	.
=73	=73	=73	=73	=73	=73	=73	=73	=73	=73	=73	=73	=73	=73	=73
4.r	.	4.r	4.r	.	4.r	.	4.r	.	8f#/L	.	8f#/L	.	16dd\LL	.
.	.	.	.	.	.	.	.	.	.	.	.	.	16ff#\	.
.	.	.	.	.	.	.	.	.	8f#/	.	8f#/	.	16aa\	.
.	.	.	.	.	.	.	.	.	.	.	.	.	16ddd\	.
.	.	.	.	.	.	.	.	.	8f#/J	.	8f#/J	.	16aa\	.
.	.	.	.	.	.	.	.	.	.	.	.	.	16ff#\JJ	.
=74	=74	=74	=74	=74	=74	=74	=74	=74	=74	=74	=74	=74	=74	=74
4.r	.	4.r	4.r	.	4.r	.	4.r	.	8b\L	.	8b\L	.	16dd\LL	.
.	.	.	.	.	.	.	.	.	.	.	.	.	16gg\	.
.	.	.	.	.	.	.	.	.	8b\	.	8b\	.	16bb\	.
.	.	.	.	.	.	.	.	.	.	.	.	.	16ddd\	.
.	.	.	.	.	.	.	.	.	8b\J	.	8b\J	.	16bb\	.
.	.	.	.	.	.	.	.	.	.	.	.	.	16gg\JJ	.
=75	=75	=75	=75	=75	=75	=75	=75	=75	=75	=75	=75	=75	=75	=75
4.r	.	4.r	4.r	.	4.r	.	4.r	.	8b\L	.	8b\L	.	16dd\LL	.
.	.	.	.	.	.	.	.	.	.	.	.	.	16gg\	.
.	.	.	.	.	.	.	.	.	8b\	.	8b\	.	16bb\	.
.	.	.	.	.	.	.	.	.	.	.	.	.	16ddd\	.
.	.	.	.	.	.	.	.	.	8b\J	.	8b\J	.	16bb\	.
.	.	.	.	.	.	.	.	.	.	.	.	.	16gg\JJ	.
=76	=76	=76	=76	=76	=76	=76	=76	=76	=76	=76	=76	=76	=76	=76
4.r	.	4.r	4.r	.	4.r	.	4.r	.	8g#/L	.	8g#/L	.	16ee\LL	.
.	.	.	.	.	.	.	.	.	.	.	.	.	16gg#\	.
.	.	.	.	.	.	.	.	.	8g#/	.	8g#/	.	16bb\	.
.	.	.	.	.	.	.	.	.	.	.	.	.	16eee\	.
.	.	.	.	.	.	.	.	.	8g#/J	.	8g#/J	.	16bb\	.
.	.	.	.	.	.	.	.	.	.	.	.	.	16gg#\JJ	.
=77	=77	=77	=77	=77	=77	=77	=77	=77	=77	=77	=77	=77	=77	=77
4.r	.	4.r	4.r	.	4.r	.	4.r	.	8g#/L	.	8g#/L	.	16ee\LL	.
.	.	.	.	.	.	.	.	.	.	.	.	.	16gg#\	.
.	.	.	.	.	.	.	.	.	8g#/	.	8g#/	.	16bb\	.
.	.	.	.	.	.	.	.	.	.	.	.	.	16eee\	.
.	.	.	.	.	.	.	.	.	8g#/J	.	8g#/J	.	16bb\	.
.	.	.	.	.	.	.	.	.	.	.	.	.	16gg#\JJ	.
=78	=78	=78	=78	=78	=78	=78	=78	=78	=78	=78	=78	=78	=78	=78
4.r	.	4.r	4.r	.	4.r	.	4.r	.	8cc\L	.	8cc\L	.	16ee\LL	.
.	.	.	.	.	.	.	.	.	.	.	.	.	16aa\	.
.	.	.	.	.	.	.	.	.	8cc\	.	8cc\	.	16ccc\	.
.	.	.	.	.	.	.	.	.	.	.	.	.	16eee\	.
.	.	.	.	.	.	.	.	.	8cc\J	.	8cc\J	.	16ccc\	.
.	.	.	.	.	.	.	.	.	.	.	.	.	16aa\JJ	.
=79	=79	=79	=79	=79	=79	=79	=79	=79	=79	=79	=79	=79	=79	=79
4.r	.	4.r	4.r	.	4.r	.	4.r	.	8cc\L	.	8cc\L	.	16ee\LL	.
.	.	.	.	.	.	.	.	.	.	.	.	.	16aa\	.
.	.	.	.	.	.	.	.	.	8cc\	.	8cc\	.	16ccc\	.
.	.	.	.	.	.	.	.	.	.	.	.	.	16eee\	.
.	.	.	.	.	.	.	.	.	8cc\J	.	8cc\J	.	16ccc\	.
.	.	.	.	.	.	.	.	.	.	.	.	.	16aa\JJ	.
=80	=80	=80	=80	=80	=80	=80	=80	=80	=80	=80	=80	=80	=80	=80
4.r	.	4.r	4.r	.	4.r	.	4.r	.	8a#/L	.	8a#/L	.	16ff#\LL	.
.	.	.	.	.	.	.	.	.	.	.	.	.	16aa#\	.
.	.	.	.	.	.	.	.	.	8a#/	.	8a#/	.	16ccc#\	.
.	.	.	.	.	.	.	.	.	.	.	.	.	16fff#\	.
.	.	.	.	.	.	.	.	.	8a#/J	.	8a#/J	.	16ccc#\	.
.	.	.	.	.	.	.	.	.	.	.	.	.	16aa#\JJ	.
=81	=81	=81	=81	=81	=81	=81	=81	=81	=81	=81	=81	=81	=81	=81
4.r	.	4.r	4.r	.	4.r	.	4.r	.	8a#/L	.	8a#/L	.	16ff#\LL	.
.	.	.	.	.	.	.	.	.	.	.	.	.	16aa#\	.
.	.	.	.	.	.	.	.	.	8a#/	.	8a#/	.	16ccc#\	.
.	.	.	.	.	.	.	.	.	.	.	.	.	16fff#\	.
.	.	.	.	.	.	.	.	.	8a#/J	.	8a#/J	.	16ccc#\	.
.	.	.	.	.	.	.	.	.	.	.	.	.	16aa#\JJ	.
=82	=82	=82	=82	=82	=82	=82	=82	=82	=82	=82	=82	=82	=82	=82
4.r	.	4.r	4.r	.	4.r	.	4.r	.	8dd\L	.	8dd\L	.	16ff#\LL	.
.	.	.	.	.	.	.	.	.	.	.	.	.	16bb\	.
.	.	.	.	.	.	.	.	.	8dd\	.	8dd\	.	16ddd\	.
.	.	.	.	.	.	.	.	.	.	.	.	.	16fff#\	.
.	.	.	.	.	.	.	.	.	8dd\J	.	8dd\J	.	16ddd\	.
.	.	.	.	.	.	.	.	.	.	.	.	.	16bb\JJ	.
=83	=83	=83	=83	=83	=83	=83	=83	=83	=83	=83	=83	=83	=83	=83
4.r	.	4.r	4.r	.	4.r	.	4.r	.	8dd\L	.	8dd\L	.	16ff#\LL	.
.	.	.	.	.	.	.	.	.	.	.	.	.	16bb\	.
.	.	.	.	.	.	.	.	.	8dd\	.	8dd\	.	16ddd\	.
.	.	.	.	.	.	.	.	.	.	.	.	.	16fff#\	.
.	.	.	.	.	.	.	.	.	8dd\J	.	8dd\J	.	16ddd\	.
.	.	.	.	.	.	.	.	.	.	.	.	.	16bb\JJ	.
=84	=84	=84	=84	=84	=84	=84	=84	=84	=84	=84	=84	=84	=84	=84
4.r	.	4.r	4.r	.	4.r	.	4.r	.	8g/L	.	8g/L	.	16b\LL	.
.	.	.	.	.	.	.	.	.	.	.	.	.	16ee\	.
.	.	.	.	.	.	.	.	.	8g/	.	8g/	.	16gg\	.
.	.	.	.	.	.	.	.	.	.	.	.	.	16bb\	.
.	.	.	.	.	.	.	.	.	8g/J	.	8g/J	.	16gg\	.
.	.	.	.	.	.	.	.	.	.	.	.	.	16ee\JJ	.
=85	=85	=85	=85	=85	=85	=85	=85	=85	=85	=85	=85	=85	=85	=85
4.r	.	4.r	4.r	.	4.r	.	4.r	.	8g/L	.	8g/L	.	16b\LL	.
.	.	.	.	.	.	.	.	.	.	.	.	.	16ee\	.
.	.	.	.	.	.	.	.	.	8g/	.	8g/	.	16gg\	.
.	.	.	.	.	.	.	.	.	.	.	.	.	16bb\	.
.	.	.	.	.	.	.	.	.	8g/J	.	8g/J	.	16gg\	.
.	.	.	.	.	.	.	.	.	.	.	.	.	16ee\JJ	.
=86	=86	=86	=86	=86	=86	=86	=86	=86	=86	=86	=86	=86	=86	=86
4.r	.	4.r	4.r	.	4.r	.	4.r	.	8cc\L	.	8cc\L	.	16ee\LL	.
.	.	.	.	.	.	.	.	.	.	.	.	.	16aa\	.
.	.	.	.	.	.	.	.	.	8cc\	.	8cc\	.	16ccc\	.
.	.	.	.	.	.	.	.	.	.	.	.	.	16eee\	.
.	.	.	.	.	.	.	.	.	8cc\J	.	8cc\J	.	16ccc\	.
.	.	.	.	.	.	.	.	.	.	.	.	.	16aa\JJ	.
=87	=87	=87	=87	=87	=87	=87	=87	=87	=87	=87	=87	=87	=87	=87
4.r	.	4.r	4.r	.	4.r	.	4.r	.	8cc\L	.	8cc\L	.	16ee\LL	.
.	.	.	.	.	.	.	.	.	.	.	.	.	16aa\	.
.	.	.	.	.	.	.	.	.	8cc\	.	8cc\	.	16ccc\	.
.	.	.	.	.	.	.	.	.	.	.	.	.	16eee\	.
.	.	.	.	.	.	.	.	.	8cc\J	.	8cc\J	.	16ccc\	.
.	.	.	.	.	.	.	.	.	.	.	.	.	16aa\JJ	.
=88	=88	=88	=88	=88	=88	=88	=88	=88	=88	=88	=88	=88	=88	=88
4.r	.	4.r	4.r	.	4.r	.	4.r	.	8f#/L	.	8f#/L	.	16a\LL	.
.	.	.	.	.	.	.	.	.	.	.	.	.	16dd\	.
.	.	.	.	.	.	.	.	.	8f#/	.	8f#/	.	16ff#\	.
.	.	.	.	.	.	.	.	.	.	.	.	.	16aa\	.
.	.	.	.	.	.	.	.	.	8f#/J	.	8f#/J	.	16ff#\	.
.	.	.	.	.	.	.	.	.	.	.	.	.	16dd\JJ	.
=89	=89	=89	=89	=89	=89	=89	=89	=89	=89	=89	=89	=89	=89	=89
4.r	.	4.r	4.r	.	4.r	.	4.r	.	8f#/L	.	8f#/L	.	16a\LL	.
.	.	.	.	.	.	.	.	.	.	.	.	.	16dd\	.
.	.	.	.	.	.	.	.	.	8f#/	.	8f#/	.	16ff#\	.
.	.	.	.	.	.	.	.	.	.	.	.	.	16aa\	.
.	.	.	.	.	.	.	.	.	8f#/J	.	8f#/J	.	16ff#\	.
.	.	.	.	.	.	.	.	.	.	.	.	.	16dd\JJ	.
=90	=90	=90	=90	=90	=90	=90	=90	=90	=90	=90	=90	=90	=90	=90
4.r	.	4.r	4.r	.	4.r	.	4.r	.	8b\L	.	8b\L	.	16dd\LL	.
.	.	.	.	.	.	.	.	.	.	.	.	.	16gg\	.
.	.	.	.	.	.	.	.	.	8b\	.	8b\	.	16bb\	.
.	.	.	.	.	.	.	.	.	.	.	.	.	16ddd\	.
.	.	.	.	.	.	.	.	.	8b\J	.	8b\J	.	16bb\	.
.	.	.	.	.	.	.	.	.	.	.	.	.	16gg\JJ	.
=91	=91	=91	=91	=91	=91	=91	=91	=91	=91	=91	=91	=91	=91	=91
4.r	.	4.r	4.r	.	4.r	.	4.r	.	8b\L	.	8b\L	.	16dd\LL	.
.	.	.	.	.	.	.	.	.	.	.	.	.	16gg\	.
.	.	.	.	.	.	.	.	.	8b\	.	8b\	.	16bb\	.
.	.	.	.	.	.	.	.	.	.	.	.	.	16ddd\	.
.	.	.	.	.	.	.	.	.	8b\J	.	8b\J	.	16bb\	.
.	.	.	.	.	.	.	.	.	.	.	.	.	16gg\JJ	.
=92	=92	=92	=92	=92	=92	=92	=92	=92	=92	=92	=92	=92	=92	=92
4.r	.	4.r	4.r	.	4.r	.	4.r	.	8a#/L	.	8a#/L	.	16ee\LL	.
.	.	.	.	.	.	.	.	.	.	.	.	.	16aa#\	.
.	.	.	.	.	.	.	.	.	8a#/	.	8a#/	.	16ccc#\	.
.	.	.	.	.	.	.	.	.	.	.	.	.	16eee\	.
.	.	.	.	.	.	.	.	.	8a#/J	.	8a#/J	.	16ccc#\	.
.	.	.	.	.	.	.	.	.	.	.	.	.	16aa#\JJ	.
=93	=93	=93	=93	=93	=93	=93	=93	=93	=93	=93	=93	=93	=93	=93
4.r	.	4.r	4.r	.	4.r	.	4.r	.	8a#/L	.	8a#/L	.	16ee\LL	.
.	.	.	.	.	.	.	.	.	.	.	.	.	16aa#\	.
.	.	.	.	.	.	.	.	.	8a#/	.	8a#/	.	16ccc#\	.
.	.	.	.	.	.	.	.	.	.	.	.	.	16eee\	.
.	.	.	.	.	.	.	.	.	8a#/J	.	8a#/J	.	16ccc#\	.
.	.	.	.	.	.	.	.	.	.	.	.	.	16aa#\JJ	.
=94	=94	=94	=94	=94	=94	=94	=94	=94	=94	=94	=94	=94	=94	=94
4.r	.	4.r	4.r	.	4.r	.	4.r	.	8a#/L	.	8a#/L	.	16ee\LL	.
.	.	.	.	.	.	.	.	.	.	.	.	.	16aa#\	.
.	.	.	.	.	.	.	.	.	8a#/	.	8a#/	.	16ccc#\	.
.	.	.	.	.	.	.	.	.	.	.	.	.	16aa#\	.
.	.	.	.	.	.	.	.	.	8a#/J	.	8a#/J	.	16ff#\	.
.	.	.	.	.	.	.	.	.	.	.	.	.	16ee\JJ	.
=95	=95	=95	=95	=95	=95	=95	=95	=95	=95	=95	=95	=95	=95	=95
4BB/	f	4.r	4BB/	f	4BB/	f	4d\	f	8b\L	f	8b\L	f	8dd\L	f
.	.	.	.	.	.	.	.	.	16dd\L	.	16dd\L	.	16dd\L	.
.	.	.	.	.	.	.	.	.	16cc#\J	.	16cc#\J	.	16cc#\J	.
8BB/	.	.	8BB/	.	8BB/	.	8d\	.	8b\J	.	8b\J	.	8b\J	.
=96	=96	=96	=96	=96	=96	=96	=96	=96	=96	=96	=96	=96	=96	=96
4BB/	.	4.r	4BB/	.	4BB/	.	8f#\L	.	8d/L	.	8d/L	.	8d/L	.
.	.	.	.	.	.	.	8e\	.	8c#/	.	8c#/	.	8c#/	.
8BB/	.	.	8BB/	.	8BB/	.	8d\J	.	8B/J	.	8B/J	.	8B/J	.
=97	=97	=97	=97	=97	=97	=97	=97	=97	=97	=97	=97	=97	=97	=97
4BB/	.	4.r	4BB/	.	4BB/	.	4f#\	.	8dd\L	.	8dd\L	.	8dd\L	.
.	.	.	.	.	.	.	.	.	16ff#\L	.	16ff#\L	.	16ff#\L	.
.	.	.	.	.	.	.	.	.	16ee\J	.	16ee\J	.	16ee\J	.
8BB/	.	.	8BB/	.	8BB/	.	8f#\	.	8dd\J	.	8dd\J	.	8dd\J	.
=98	=98	=98	=98	=98	=98	=98	=98	=98	=98	=98	=98	=98	=98	=98
4F#\	.	4.r	4F#\	.	4F#\	.	4A#/	.	8cc#/L	.	8cc#/L	.	8cc#/L	.
.	.	.	.	.	.	.	.	.	8a#/	.	8a#/	.	8a#/	.
8F#\	.	.	8F#\	.	8F#\	.	8A#/	.	8f#/J	.	8f#/J	.	8f#/J	.
=99	=99	=99	=99	=99	=99	=99	=99	=99	=99	=99	=99	=99	=99	=99
4BB/	.	4.r	4BB/	.	4BB/	.	4d\	.	8b\L	.	8b\L	.	8b\L	.
.	.	.	.	.	.	.	.	.	16dd\L	.	16dd\L	.	16dd\L	.
.	.	.	.	.	.	.	.	.	16cc#\J	.	16cc#\J	.	16cc#\J	.
8BB/	.	.	8BB/	.	8BB/	.	8d\	.	8b\J	.	8b\J	.	8b\J	.
=100	=100	=100	=100	=100	=100	=100	=100	=100	=100	=100	=100	=100	=100	=100
4BB/	.	4.r	4BB/	.	4BB/	.	8f#\L	.	8d/L	.	8d/L	.	8d/L	.
.	.	.	.	.	.	.	8e\	.	8c#/	.	8c#/	.	8c#/	.
8BB/	.	.	8BB/	.	8BB/	.	8d\J	.	8B/J	.	8B/J	.	8B/J	.
=101	=101	=101	=101	=101	=101	=101	=101	=101	=101	=101	=101	=101	=101	=101
4BB/	.	4.r	4BB/	.	4BB/	.	4f#\	.	8dd\L	.	8dd\L	.	8dd\L	.
.	.	.	.	.	.	.	.	.	16ff#\L	.	16ff#\L	.	16ff#\L	.
.	.	.	.	.	.	.	.	.	16ee\J	.	16ee\J	.	16ee\J	.
8BB/	.	.	8BB/	.	8BB/	.	8f#\	.	8dd\J	.	8dd\J	.	8dd\J	.
=102	=102	=102	=102	=102	=102	=102	=102	=102	=102	=102	=102	=102	=102	=102
4F#\	.	4.r	4F#\	.	4F#\	.	4A#/	.	4cc#\	.	4cc#\	.	8cc#\L	.
.	.	.	.	.	.	.	.	.	.	.	.	.	8aa#\	.
8r	.	.	8r	.	8r	.	8r	.	8r	.	8r	.	8ccc#\J	.
=103	=103	=103	=103	=103	=103	=103	=103	=103	=103	=103	=103	=103	=103	=103
4AA#/	.	4.r	4.r	.	4AA#/	.	4.r	.	4.r	.	4.r	.	8ee\L	.
.	.	.	.	.	.	.	.	.	.	.	.	.	8dd\	.
8r	.	.	.	.	8r	.	.	.	.	.	.	.	8cc#\J	.
=104	=104	=104	=104	=104	=104	=104	=104	=104	=104	=104	=104	=104	=104	=104
4BB/	.	4.r	4.r	.	4BB/	.	4.r	.	4.r	.	4.r	.	8dd\L	.
.	.	.	.	.	.	.	.	.	.	.	.	.	8ff#\	.
8r	.	.	.	.	8r	.	.	.	.	.	.	.	8bb\J	.
=105	=105	=105	=105	=105	=105	=105	=105	=105	=105	=105	=105	=105	=105	=105
4E#\	.	4.r	4.r	.	4E#\	.	4.r	.	4.r	.	4.r	.	8dd\L	.
.	.	.	.	.	.	.	.	.	.	.	.	.	8cc#\	.
8r	.	.	.	.	8r	.	.	.	.	.	.	.	8b\J	.
=106	=106	=106	=106	=106	=106	=106	=106	=106	=106	=106	=106	=106	=106	=106
4F#\	.	4.r	4.r	.	4F#\	.	4.r	.	4.r	.	4.r	.	8a#\L	.
.	.	.	.	.	.	.	.	.	.	.	.	.	8cc#\	.
8r	.	.	.	.	8r	.	.	.	.	.	.	.	8ff#\J	.
=107	=107	=107	=107	=107	=107	=107	=107	=107	=107	=107	=107	=107	=107	=107
4A#\	.	4.r	4.r	.	4A#\	.	4.r	.	4.r	.	4.r	.	8ee\L	.
.	.	.	.	.	.	.	.	.	.	.	.	.	8dd\	.
8r	.	.	.	.	8r	.	.	.	.	.	.	.	8cc#\J	.
=108	=108	=108	=108	=108	=108	=108	=108	=108	=108	=108	=108	=108	=108	=108
4B\	.	4.r	4.r	.	4B\	.	4.r	.	4.r	.	4.r	.	16dd\LL	.
.	.	.	.	.	.	.	.	.	.	.	.	.	16ff#\	.
.	.	.	.	.	.	.	.	.	.	.	.	.	16bb\	.
.	.	.	.	.	.	.	.	.	.	.	.	.	16ff#\	.
8r	.	.	.	.	8r	.	.	.	.	.	.	.	16dd\	.
.	.	.	.	.	.	.	.	.	.	.	.	.	16ff#\JJ	.
=109	=109	=109	=109	=109	=109	=109	=109	=109	=109	=109	=109	=109	=109	=109
4BB/	.	4.r	4.r	.	4BB/	.	4.r	.	4.r	.	4.r	.	16dd\LL	.
.	.	.	.	.	.	.	.	.	.	.	.	.	16ff#\	.
.	.	.	.	.	.	.	.	.	.	.	.	.	16bb\	.
.	.	.	.	.	.	.	.	.	.	.	.	.	16ff#\	.
8r	.	.	.	.	8r	.	.	.	.	.	.	.	16dd\	.
.	.	.	.	.	.	.	.	.	.	.	.	.	16ff#\JJ	.
=110	=110	=110	=110	=110	=110	=110	=110	=110	=110	=110	=110	=110	=110	=110
4F#\	.	4.r	4.r	.	4F#\	.	4.r	.	4.r	.	4.r	.	16cc#\LL	.
.	.	.	.	.	.	.	.	.	.	.	.	.	16ff#\	.
.	.	.	.	.	.	.	.	.	.	.	.	.	16bb\	.
.	.	.	.	.	.	.	.	.	.	.	.	.	16ff#\	.
8r	.	.	.	.	8r	.	.	.	.	.	.	.	16cc#\	.
.	.	.	.	.	.	.	.	.	.	.	.	.	16ff#\JJ	.
=111	=111	=111	=111	=111	=111	=111	=111	=111	=111	=111	=111	=111	=111	=111
4FF#/	.	4.r	4.r	.	4FF#/	.	4.r	.	4.r	.	4.r	.	16cc#\LL	.
.	.	.	.	.	.	.	.	.	.	.	.	.	16ff#\	.
.	.	.	.	.	.	.	.	.	.	.	.	.	16aa#\	.
.	.	.	.	.	.	.	.	.	.	.	.	.	16ff#\	.
8r	.	.	.	.	8r	.	.	.	.	.	.	.	16cc#\	.
.	.	.	.	.	.	.	.	.	.	.	.	.	16ff#\JJ	.
=112	=112	=112	=112	=112	=112	=112	=112	=112	=112	=112	=112	=112	=112	=112
4BB/	f	4.r	4BB/	f	4BB/	f	4d\	f	8b\L	f	8b\L	f	8b\L	f
.	.	.	.	.	.	.	.	.	16dd\L	.	16dd\L	.	16dd\L	.
.	.	.	.	.	.	.	.	.	16cc#\J	.	16cc#\J	.	16cc#\J	.
8BB/	.	.	8BB/	.	8BB/	.	8d\	.	8b\J	.	8b\J	.	8b\J	.
=113	=113	=113	=113	=113	=113	=113	=113	=113	=113	=113	=113	=113	=113	=113
4BB/	.	4.r	4BB/	.	4BB/	.	8f#\L	.	8d/L	.	8d/L	.	8d/L	.
.	.	.	.	.	.	.	8e\	.	8c#/	.	8c#/	.	8c#/	.
8BB/	.	.	8BB/	.	8BB/	.	8d\J	.	8B/J	.	8B/J	.	8B/J	.
=114	=114	=114	=114	=114	=114	=114	=114	=114	=114	=114	=114	=114	=114	=114
4BB/	.	4.r	4BB/	.	4BB/	.	4f#\	.	8dd\L	.	8dd\L	.	8dd\L	.
.	.	.	.	.	.	.	.	.	16ff#\L	.	16ff#\L	.	16ff#\L	.
.	.	.	.	.	.	.	.	.	16ee\J	.	16ee\J	.	16ee\J	.
8BB/	.	.	8BB/	.	8BB/	.	8f#\	.	8dd\J	.	8dd\J	.	8dd\J	.
=115	=115	=115	=115	=115	=115	=115	=115	=115	=115	=115	=115	=115	=115	=115
4F#\	.	4.r	4F#\	.	4F#\	.	4.A#/	.	8cc#/L	.	8cc#/L	.	8cc#/L	.
.	.	.	.	.	.	.	.	.	8a#/	.	8a#/	.	8a#/	.
8E\	.	.	8E\	.	8E\	.	.	.	8f#/J	.	8f#/J	.	8f#/J	.
=116	=116	=116	=116	=116	=116	=116	=116	=116	=116	=116	=116	=116	=116	=116
4D\	.	4.r	4D\	.	4D\	.	4an\	.	8dd\L	.	8dd\L	.	8dd\L	.
.	.	.	.	.	.	.	.	.	16ff#\L	.	16ff#\L	.	16ff#\L	.
.	.	.	.	.	.	.	.	.	16ee\J	.	16ee\J	.	16ee\J	.
8D\	.	.	8D\	.	8D\	.	8a\	.	8dd\J	.	8dd\J	.	8dd\J	.
=117	=117	=117	=117	=117	=117	=117	=117	=117	=117	=117	=117	=117	=117	=117
4D\	.	4.r	4D\	.	4D\	.	8A/L	.	8f#/L	.	8f#/L	.	8f#/L	.
.	.	.	.	.	.	.	8G/	.	8e/	.	8e/	.	8e/	.
8D\	.	.	8D\	.	8D\	.	8F#/J	.	8d/J	.	8d/J	.	8d/J	.
=118	=118	=118	=118	=118	=118	=118	=118	=118	=118	=118	=118	=118	=118	=118
4D\	.	4.r	4D\	.	4D\	.	4a\	.	8ff#\L	.	8ff#\L	.	8ff#\L	.
.	.	.	.	.	.	.	.	.	16aa\L	.	16aa\L	.	16aa\L	.
.	.	.	.	.	.	.	.	.	16gg\J	.	16gg\J	.	16gg\J	.
8D\	.	.	8D\	.	8D\	.	8a\	.	8ff#\J	.	8ff#\J	.	8ff#\J	.
=119	=119	=119	=119	=119	=119	=119	=119	=119	=119	=119	=119	=119	=119	=119
4A\	.	4.r	4A\	.	4A\	.	4c#\	.	8ee\L	.	8ee\L	.	8ee\L	.
.	.	.	.	.	.	.	.	.	8cc#\	.	8cc#\	.	8cc#\	.
8A\	.	.	8A\	.	8A\	.	8c#\	.	8a\J	.	8a\J	.	8a\J	.
=120	=120	=120	=120	=120	=120	=120	=120	=120	=120	=120	=120	=120	=120	=120
4G\	.	4.r	4G\	.	4G\	.	4B/	.	8ee\L	.	8ee\L	.	8ee\L	.
.	.	.	.	.	.	.	.	.	16gg\L	.	16gg\L	.	16gg\L	.
.	.	.	.	.	.	.	.	.	16ff#\J	.	16ff#\J	.	16ff#\J	.
8G\	.	.	8G\	.	8G\	.	8B/	.	8ee\J	.	8ee\J	.	8ee\J	.
=121	=121	=121	=121	=121	=121	=121	=121	=121	=121	=121	=121	=121	=121	=121
4E\	.	4.r	4E\	.	4E\	.	8B/L	.	8g/L	.	8g/L	.	8g/L	.
.	.	.	.	.	.	.	8A/	.	8f#/	.	8f#/	.	8f#/	.
8E\	.	.	8E\	.	8E\	.	8G/J	.	8e/J	.	8e/J	.	8e/J	.
=122	=122	=122	=122	=122	=122	=122	=122	=122	=122	=122	=122	=122	=122	=122
4E\	.	4.r	4E\	.	4E\	.	4b\	.	8gg\L	.	8gg\L	.	8gg\L	.
.	.	.	.	.	.	.	.	.	16bb\L	.	16bb\L	.	16bb\L	.
.	.	.	.	.	.	.	.	.	16aa\J	.	16aa\J	.	16aa\J	.
8E\	.	.	8E\	.	8E\	.	8b\	.	8gg\J	.	8gg\J	.	8gg\J	.
=123	=123	=123	=123	=123	=123	=123	=123	=123	=123	=123	=123	=123	=123	=123
*	*	*	*	*	*^	*	*	*	*	*	*	*	*	*
4B\	.	4.r	4.B\	.	4.B\	4B/	.	4.d#\	.	4.ff#\	.	4.ff#\	.	8ff#\L	.
.	.	.	.	.	.	.	.	.	.	.	.	.	.	8dd#\	.
8BB/	.	.	.	.	.	8BB/	.	.	.	.	.	.	.	8b\J	.
*	*	*	*	*	*v	*v	*	*	*	*	*	*	*	*	*
=124	=124	=124	=124	=124	=124	=124	=124	=124	=124	=124	=124	=124	=124	=124
4G\	.	4.r	4.r	.	4G\	.	4.r	.	4.r	.	4.r	.	16ee\LL	.
.	.	.	.	.	.	.	.	.	.	.	.	.	16b\	.
.	.	.	.	.	.	.	.	.	.	.	.	.	16gg\	.
.	.	.	.	.	.	.	.	.	.	.	.	.	16ee\	.
8G#\	.	.	.	.	8G#\	.	.	.	.	.	.	.	16bb\	.
.	.	.	.	.	.	.	.	.	.	.	.	.	16b\JJ	.
=125	=125	=125	=125	=125	=125	=125	=125	=125	=125	=125	=125	=125	=125	=125
4A\	.	4.r	4.r	.	4A\	.	4.r	.	4.r	.	4.r	.	16ccn\LL	.
.	.	.	.	.	.	.	.	.	.	.	.	.	16a\	.
.	.	.	.	.	.	.	.	.	.	.	.	.	16cc\	.
.	.	.	.	.	.	.	.	.	.	.	.	.	16a\	.
8A\	.	.	.	.	8A\	.	.	.	.	.	.	.	16cc\	.
.	.	.	.	.	.	.	.	.	.	.	.	.	16a\JJ	.
=126	=126	=126	=126	=126	=126	=126	=126	=126	=126	=126	=126	=126	=126	=126
4F#\	.	4.r	4.r	.	4F#\	.	4.r	.	4.r	.	4.r	.	16dd\LL	.
.	.	.	.	.	.	.	.	.	.	.	.	.	16a\	.
.	.	.	.	.	.	.	.	.	.	.	.	.	16ff#\	.
.	.	.	.	.	.	.	.	.	.	.	.	.	16dd\	.
8F#\	.	.	.	.	8F#\	.	.	.	.	.	.	.	16aa\	.
.	.	.	.	.	.	.	.	.	.	.	.	.	16a\JJ	.
=127	=127	=127	=127	=127	=127	=127	=127	=127	=127	=127	=127	=127	=127	=127
4G\	.	4.r	4.r	.	4G\	.	4.r	.	4.r	.	4.r	.	16b/LL	.
.	.	.	.	.	.	.	.	.	.	.	.	.	16g/	.
.	.	.	.	.	.	.	.	.	.	.	.	.	16b/	.
.	.	.	.	.	.	.	.	.	.	.	.	.	16g/	.
8G\	.	.	.	.	8G\	.	.	.	.	.	.	.	16b/	.
.	.	.	.	.	.	.	.	.	.	.	.	.	16g/JJ	.
=128	=128	=128	=128	=128	=128	=128	=128	=128	=128	=128	=128	=128	=128	=128
4E\	.	4.r	4.r	.	4E\	.	4.r	.	4.r	.	4.r	.	16cc\LL	.
.	.	.	.	.	.	.	.	.	.	.	.	.	16g\	.
.	.	.	.	.	.	.	.	.	.	.	.	.	16ee\	.
.	.	.	.	.	.	.	.	.	.	.	.	.	16cc\	.
8E\	.	.	.	.	8E\	.	.	.	.	.	.	.	16gg\	.
.	.	.	.	.	.	.	.	.	.	.	.	.	16b\JJ	.
=129	=129	=129	=129	=129	=129	=129	=129	=129	=129	=129	=129	=129	=129	=129
4F#\	.	4.r	4.r	.	4F#\	.	4.r	.	4.r	.	4.r	.	16a/LL	.
.	.	.	.	.	.	.	.	.	.	.	.	.	16f#/	.
.	.	.	.	.	.	.	.	.	.	.	.	.	16a/	.
.	.	.	.	.	.	.	.	.	.	.	.	.	16f#/	.
8F#\	.	.	.	.	8F#\	.	.	.	.	.	.	.	16a/	.
.	.	.	.	.	.	.	.	.	.	.	.	.	16f#/JJ	.
=130	=130	=130	=130	=130	=130	=130	=130	=130	=130	=130	=130	=130	=130	=130
4BB/	.	4.r	4.r	.	4BB/	.	4.r	.	4.r	.	4.r	.	16dd#\LL	.
.	.	.	.	.	.	.	.	.	.	.	.	.	16b\	.
.	.	.	.	.	.	.	.	.	.	.	.	.	16ff#\	.
.	.	.	.	.	.	.	.	.	.	.	.	.	16b\	.
8BB/	.	.	.	.	8BB/	.	.	.	.	.	.	.	16aa\	.
.	.	.	.	.	.	.	.	.	.	.	.	.	16ff#\JJ	.
=131	=131	=131	=131	=131	=131	=131	=131	=131	=131	=131	=131	=131	=131	=131
4BB/	.	4.r	4.r	.	4BB/	.	4.r	.	4.r	.	4.r	.	16gg\LL	.
.	.	.	.	.	.	.	.	.	.	.	.	.	16ee\	.
.	.	.	.	.	.	.	.	.	.	.	.	.	16bb\	.
.	.	.	.	.	.	.	.	.	.	.	.	.	16gg\	.
8BB/	.	.	.	.	8BB/	.	.	.	.	.	.	.	16bb\	.
.	.	.	.	.	.	.	.	.	.	.	.	.	16ee\JJ	.
=132	=132	=132	=132	=132	=132	=132	=132	=132	=132	=132	=132	=132	=132	=132
4BB/	.	4.r	4.r	.	4BB/	.	4.r	.	4.r	.	4.r	.	16dd#\LL	.
.	.	.	.	.	.	.	.	.	.	.	.	.	16b\	.
.	.	.	.	.	.	.	.	.	.	.	.	.	16ff#\	.
.	.	.	.	.	.	.	.	.	.	.	.	.	16b\	.
8BB/	.	.	.	.	8BB/	.	.	.	.	.	.	.	16aa\	.
.	.	.	.	.	.	.	.	.	.	.	.	.	16ff#\JJ	.
=133	=133	=133	=133	=133	=133	=133	=133	=133	=133	=133	=133	=133	=133	=133
4BB/	.	4.r	4.r	.	4BB/	.	4.r	.	4.r	.	4.r	.	16gg\LL	.
.	.	.	.	.	.	.	.	.	.	.	.	.	16ee\	.
.	.	.	.	.	.	.	.	.	.	.	.	.	16bb\	.
.	.	.	.	.	.	.	.	.	.	.	.	.	16gg\	.
8BB/	.	.	.	.	8BB/	.	.	.	.	.	.	.	16bb\	.
.	.	.	.	.	.	.	.	.	.	.	.	.	16ee\JJ	.
=134	=134	=134	=134	=134	=134	=134	=134	=134	=134	=134	=134	=134	=134	=134
4BB/	.	4.r	4.r	.	4BB/	.	4.r	.	4.r	.	4.r	.	16dd#\LL	.
.	.	.	.	.	.	.	.	.	.	.	.	.	16b\	.
.	.	.	.	.	.	.	.	.	.	.	.	.	16ff#\	.
.	.	.	.	.	.	.	.	.	.	.	.	.	16b\	.
8BB/	.	.	.	.	8BB/	.	.	.	.	.	.	.	16aa\	.
.	.	.	.	.	.	.	.	.	.	.	.	.	16ff#\JJ	.
=135	=135	=135	=135	=135	=135	=135	=135	=135	=135	=135	=135	=135	=135	=135
4E\	.	4.r	4.r	.	4E\	.	4.r	.	4.r	.	4.r	.	16gg#\LL	.
.	.	.	.	.	.	.	.	.	.	.	.	.	16ee\	.
.	.	.	.	.	.	.	.	.	.	.	.	.	16bb\	.
.	.	.	.	.	.	.	.	.	.	.	.	.	16gg#\	.
8G#\	.	.	.	.	8G#\	.	.	.	.	.	.	.	16bb\	.
.	.	.	.	.	.	.	.	.	.	.	.	.	16ddn\JJ	.
=136	=136	=136	=136	=136	=136	=136	=136	=136	=136	=136	=136	=136	=136	=136
4A\	.	4.r	4.r	.	4A\	.	4.r	.	4.r	.	4.r	.	16cc\LL	.
.	.	.	.	.	.	.	.	.	.	.	.	.	16a\	.
.	.	.	.	.	.	.	.	.	.	.	.	.	16ffn\	.
.	.	.	.	.	.	.	.	.	.	.	.	.	16cc\	.
8A\	.	.	.	.	8A\	.	.	.	.	.	.	.	16aa\	.
.	.	.	.	.	.	.	.	.	.	.	.	.	16ff\JJ	.
=137	=137	=137	=137	=137	=137	=137	=137	=137	=137	=137	=137	=137	=137	=137
4A\	.	4.r	4.r	.	4A\	.	4.r	.	4.r	.	4.r	.	16ccc\LL	.
.	.	.	.	.	.	.	.	.	.	.	.	.	16aa\	.
.	.	.	.	.	.	.	.	.	.	.	.	.	16ccc\	.
.	.	.	.	.	.	.	.	.	.	.	.	.	16ee\	.
8A\	.	.	.	.	8A\	.	.	.	.	.	.	.	16ccc\	.
.	.	.	.	.	.	.	.	.	.	.	.	.	16ee\JJ	.
=138	=138	=138	=138	=138	=138	=138	=138	=138	=138	=138	=138	=138	=138	=138
4B\	.	4.r	4.r	.	4B\	.	4.r	.	4.r	.	4.r	.	16dd#\LL	.
.	.	.	.	.	.	.	.	.	.	.	.	.	16b\	.
.	.	.	.	.	.	.	.	.	.	.	.	.	16dd#\	.
.	.	.	.	.	.	.	.	.	.	.	.	.	16b\	.
8B\	.	.	.	.	8B\	.	.	.	.	.	.	.	16dd#\	.
.	.	.	.	.	.	.	.	.	.	.	.	.	16b\JJ	.
=139	=139	=139	=139	=139	=139	=139	=139	=139	=139	=139	=139	=139	=139	=139
4E\	.	4.r	4.r	.	4E\	.	4.r	.	4.r	.	4.r	.	16g\LL	.
.	.	.	.	.	.	.	.	.	.	.	.	.	16b\	.
.	.	.	.	.	.	.	.	.	.	.	.	.	16ee\	.
.	.	.	.	.	.	.	.	.	.	.	.	.	16b\	.
8E\	.	.	.	.	8E\	.	.	.	.	.	.	.	16gg\	.
.	.	.	.	.	.	.	.	.	.	.	.	.	16ee\JJ	.
=140	=140	=140	=140	=140	=140	=140	=140	=140	=140	=140	=140	=140	=140	=140
4E\	.	4.r	4.r	.	4E\	.	4.r	.	4.r	.	4.r	.	16bb\LL	.
.	.	.	.	.	.	.	.	.	.	.	.	.	16ee\	.
.	.	.	.	.	.	.	.	.	.	.	.	.	16bb\	.
.	.	.	.	.	.	.	.	.	.	.	.	.	16ee\	.
8r	.	.	.	.	8r	.	.	.	.	.	.	.	16bb\	.
.	.	.	.	.	.	.	.	.	.	.	.	.	16ddd#\JJ	.
=141	=141	=141	=141	=141	=141	=141	=141	=141	=141	=141	=141	=141	=141	=141
8E\L	.	4.r	4.r	.	8E\L	.	4.r	.	4.r	.	4.r	.	16eee\LL	.
.	.	.	.	.	.	.	.	.	.	.	.	.	16ee\J	.
8B\	.	.	.	.	8B\	.	.	.	.	.	.	.	8.ff#\	.
8BB\J	.	.	.	.	8BB\J	.	.	.	.	.	.	.	.	.
.	.	.	.	.	.	.	.	.	.	.	.	.	16ee\Jk	.
=142	=142	=142	=142	=142	=142	=142	=142	=142	=142	=142	=142	=142	=142	=142
4E\	.	4.r	4.r	.	4E\	.	4.r	.	4.r	.	4.r	.	16ee\LL	.
.	.	.	.	.	.	.	.	.	.	.	.	.	16b\	.
.	.	.	.	.	.	.	.	.	.	.	.	.	16gg\	.
.	.	.	.	.	.	.	.	.	.	.	.	.	16ee\	.
8r	.	.	.	.	8r	.	.	.	.	.	.	.	16bb\	.
.	.	.	.	.	.	.	.	.	.	.	.	.	16gg\JJ	.
=143	=143	=143	=143	=143	=143	=143	=143	=143	=143	=143	=143	=143	=143	=143
4G#\	f	4.r	4G#\	f	4G#\	f	4e\	f	8bb\L	f	8bb\L	f	8bb\L	f
.	.	.	.	.	.	.	.	.	16ddd\L	.	16ddd\L	.	16ddd\L	.
.	.	.	.	.	.	.	.	.	16ccc\J	.	16ccc\J	.	16ccc\J	.
8G#\	.	.	8G#\	.	8G#\	.	8e\	.	8bb\J	.	8bb\J	.	8bb\J	.
=144	=144	=144	=144	=144	=144	=144	=144	=144	=144	=144	=144	=144	=144	=144
8.A\L	.	4.r	8.A\L	.	8.A\L	.	4.e\	.	8ccc\L	.	8ccc\L	.	8ccc\L	.
.	.	.	.	.	.	.	.	.	8ee\	.	8ee\	.	8ee\	.
16B\L	.	.	16B\L	.	16B\L	.	.	.	.	.	.	.	.	.
16A\	.	.	16A\	.	16A\	.	.	.	8a\J	.	8a\J	.	8a\J	.
16G\JJ	.	.	16G\JJ	.	16G\JJ	.	.	.	.	.	.	.	.	.
=145	=145	=145	=145	=145	=145	=145	=145	=145	=145	=145	=145	=145	=145	=145
4F#\	.	4.r	4F#\	.	4F#\	.	4d\	.	8aa\L	.	8aa\L	.	8aa\L	.
.	.	.	.	.	.	.	.	.	16ccc\L	.	16ccc\L	.	16ccc\L	.
.	.	.	.	.	.	.	.	.	16bb\J	.	16bb\J	.	16bb\J	.
8F#\	.	.	8F#\	.	8F#\	.	8d\	.	8aa\J	.	8aa\J	.	8aa\J	.
=146	=146	=146	=146	=146	=146	=146	=146	=146	=146	=146	=146	=146	=146	=146
8.G\L	.	4.r	8.G\L	.	8.G\L	.	4.d\	.	8bb\L	.	8bb\L	.	8bb\L	.
.	.	.	.	.	.	.	.	.	8dd\	.	8dd\	.	8dd\	.
16A\L	.	.	16A\L	.	16A\L	.	.	.	.	.	.	.	.	.
16G\	.	.	16G\	.	16G\	.	.	.	8g\J	.	8g\J	.	8g\J	.
16F#\JJ	.	.	16F#\JJ	.	16F#\JJ	.	.	.	.	.	.	.	.	.
=147	=147	=147	=147	=147	=147	=147	=147	=147	=147	=147	=147	=147	=147	=147
4E\	.	4.r	4E\	.	4E\	.	4b\	.	8gg\L	.	8gg\L	.	8gg\L	.
.	.	.	.	.	.	.	.	.	16bb\L	.	16bb\L	.	16bb\L	.
.	.	.	.	.	.	.	.	.	16aa\J	.	16aa\J	.	16aa\J	.
8E\	.	.	8E\	.	8E\	.	8b\	.	8gg\J	.	8gg\J	.	8gg\J	.
=148	=148	=148	=148	=148	=148	=148	=148	=148	=148	=148	=148	=148	=148	=148
8A\L	.	4.r	8A\L	.	8A\L	.	8cc\L	.	8ffn\L	.	8ffn\L	.	8ffn\L	.
8B\	.	.	8B\	.	8B\	.	8b\	.	8gg\	.	8gg\	.	8gg\	.
8G\J	.	.	8G\J	.	8G\J	.	8b\J	.	8ee\J	.	8ee\J	.	8ee\J	.
=149	=149	=149	=149	=149	=149	=149	=149	=149	=149	=149	=149	=149	=149	=149
4E\	.	4.r	4E\	.	4E\	.	4B/	.	8g/L	.	8g/L	.	8g/L	.
.	.	.	.	.	.	.	.	.	16b/L	.	16b/L	.	16b/L	.
.	.	.	.	.	.	.	.	.	16a/J	.	16a/J	.	16a/J	.
8E\	.	.	8E\	.	8E\	.	8B/	.	8g/J	.	8g/J	.	8g/J	.
=150	=150	=150	=150	=150	=150	=150	=150	=150	=150	=150	=150	=150	=150	=150
8AA/L	.	4.r	8AA/L	.	8AA/L	.	8c/L	.	8fn/L	.	8fn/L	.	8fn/L	.
8BB/	.	.	8BB/	.	8BB/	.	8B/	.	8g/	.	8g/	.	8g/	.
8GG/J	.	.	8GG/J	.	8GG/J	.	8B/J	.	8e/J	.	8e/J	.	8e/J	.
=151	=151	=151	=151	=151	=151	=151	=151	=151	=151	=151	=151	=151	=151	=151
4E\	.	4.r	4E\	.	4E\	.	4g\	.	8ee\L	.	8ee\L	.	8ee\L	.
.	.	.	.	.	.	.	.	.	16gg\L	.	16gg\L	.	16gg\L	.
.	.	.	.	.	.	.	.	.	16ff#\J	.	16ff#\J	.	16ff#\J	.
8E\	.	.	8E\	.	8E\	.	8g\	.	8ee\J	.	8ee\J	.	8ee\J	.
=152	=152	=152	=152	=152	=152	=152	=152	=152	=152	=152	=152	=152	=152	=152
4E\	.	4.r	4E\	.	4E\	.	4g\	.	8ee\L	.	8ee\L	.	8ee\L	.
.	.	.	.	.	.	.	.	.	16gg\L	.	16gg\L	.	16gg\L	.
.	.	.	.	.	.	.	.	.	16ff#\J	.	16ff#\J	.	16ff#\J	.
8G\	.	.	8G\	.	8G\	.	8b\	.	8ee\J	.	8ee\J	.	8ee\J	.
=153	=153	=153	=153	=153	=153	=153	=153	=153	=153	=153	=153	=153	=153	=153
8A\L	.	4.r	8A\L	.	8A\L	.	8cc\L	.	8ff#\L	.	8ff#\L	.	8ff#\L	.
8B\	.	.	8B\	.	8B\	.	8b\	.	8b\	.	8b\	.	8b\	.
8BB\J	.	.	8BB\J	.	8BB\J	.	8a\J	.	8dd#\J	.	8dd#\J	.	8dd#\J	.
=154	=154	=154	=154	=154	=154	=154	=154	=154	=154	=154	=154	=154	=154	=154
8.E\L	.	4.r	8.E\L	.	8.E\L	.	4g\	.	4ee\	.	4ee\	.	4ee\	.
16F#\L	.	.	16F#\L	.	16F#\L	.	.	.	.	.	.	.	.	.
16G\	.	.	16G\	.	16G\	.	8r	.	8r	.	8r	.	8r	.
16F#\JJ	.	.	16F#\JJ	.	16F#\JJ	.	.	.	.	.	.	.	.	.
=155	=155	=155	=155	=155	=155	=155	=155	=155	=155	=155	=155	=155	=155	=155
4E\	.	4.r	4E\	.	4E\	.	4G/	.	8e/L	.	8e/L	.	8e/L	.
.	.	.	.	.	.	.	.	.	16g/L	.	16g/L	.	16g/L	.
.	.	.	.	.	.	.	.	.	16f#/J	.	16f#/J	.	16f#/J	.
8E\	.	.	8E\	.	8E\	.	8G/	.	8e/J	.	8e/J	.	8e/J	.
=156	=156	=156	=156	=156	=156	=156	=156	=156	=156	=156	=156	=156	=156	=156
4E\	.	4.r	4E\	.	4E\	.	4G/	.	8e/L	.	8e/L	.	8e/L	.
.	.	.	.	.	.	.	.	.	16g/L	.	16g/L	.	16g/L	.
.	.	.	.	.	.	.	.	.	16f#/J	.	16f#/J	.	16f#/J	.
8GG/	.	.	8GG/	.	8GG/	.	8B/	.	8e/J	.	8e/J	.	8e/J	.
=157	=157	=157	=157	=157	=157	=157	=157	=157	=157	=157	=157	=157	=157	=157
8AA/L	.	4.r	8AA/L	.	8AA/L	.	8c/L	.	8f#/L	.	8f#/L	.	8f#/L	.
8BB/	.	.	8BB/	.	8BB/	.	8B/	.	8B/	.	8B/	.	8B/	.
8BB/J	.	.	8BB/J	.	8BB/J	.	8A/J	.	8d#/J	.	8d#/J	.	8d#/J	.
=158	=158	=158	=158	=158	=158	=158	=158	=158	=158	=158	=158	=158	=158	=158
4.EE;/	.	4.r	4.EE;/	.	4.EE;/	.	4.G;/	.	4.e;/	.	4.e;/	.	4.e;/	.
==	==	==	==	==	==	==	==	==	==	==	==	==	==	==
*-	*-	*-	*-	*-	*-	*-	*-	*-	*-	*-	*-	*-	*-	*-
!!!ENC: Don Anthony
!!!END: 2005/06/10/
!!!ONB: Converted to Humdrum by Craig Sapp 2005/06/24/
